icon/fa/bugs.svg

<svg xmlns="http://www.w3.org/2000/svg" viewBox="0 0 576 512"><!--! Font Awesome Free 6.1.2 by @fontawesome - https://fontawesome.com License - https://fontawesome.com/license/free (Icons: CC BY 4.0, Fonts: SIL OFL 1.1, Code: MIT License) Copyright 2022 Fonticons, Inc.--><path d="M187.3 135.1h17l4.2-19.8c2.6-13 15.2-21.44 28.2-18.84 13 2.6 21.4 15.24 18.8 28.24l-8 40c-2.2 11.2-12.1 18.4-24.4 18.4h-32v24.2l38.7 9.4c9.5 2.4 16.6 10.2 18 19.9l8 56c1.8 13.1-7.3 25.3-20.4 27.2-13.1 1.8-25.3-7.3-27.2-20.4l-5.7-40-18.4-4.6c-10.9 19.8-31.9 32.3-57 32.3-23.3 0-44.35-12.5-55.23-32.3l-18.39 4.6-5.72 40c-1.88 13.1-14.03 22.2-27.15 20.4C7.484 317.9-1.633 305.7.241 292.6l8-56c1.38-9.7 8.469-17.5 17.939-19.9l36.92-9.4v-24.2h-32c-10.54 0-20.39-7.2-22.637-18.4l-8-40c-2.6-13 5.829-25.64 18.827-28.24 13-2.6 25.64 5.84 28.24 18.84l4.14 19.8h16.98c4.7-10.7 12.71-20.6 22.86-27.7L58.15 33.92c-5.48-12.07-.14-26.295 11.93-31.775 12.07-5.48 26.29-.138 31.82 11.935L128 71.66l26.1-57.58c5.5-12.073 19.8-17.415 31.8-11.935 11.2 5.48 17.4 19.705 12 31.775l-33.4 73.48c10.1 7.1 18.1 17 22.8 27.7zm314.2 187.6 14.7 8.5 13.9-15.9c8.8-10 23.9-10.9 33-2.2 10.8 8.8 11.8 23.9 3.1 33l-27 31.5c-7.5 8.6-20.1 10.7-30 5l-27.7-16-11.6 20.1 28 27.1c7 6.8 9.2 17.1 5.6 26.2l-21.1 52.5c-4.9 12.3-18.9 18.3-31.2 13.3-12.3-4.9-18.3-18.9-13.3-31.2l15-37.5-13.6-13.2c-20.2 11.7-44.3 12.8-65.2.7-21-12.1-32.5-34.2-32-56.8l-18.3-5.2-24.9 31.8c-8.2 10.4-23.3 12.2-33.7 4-10.4-8.1-12.3-23.2-4.1-33.7l34.9-44.5c6.1-7.6 16.1-10.9 25.5-9.1l37.5 11.6 11.6-20.1-27.7-16c-9.9-5.8-14.4-17.7-10.7-28.5l13.1-38.7c4.2-12.5 17.8-19.2 30.4-15 12.5 4.3 18.4 17.9 15 30.4l-7.6 20 15.6 8.5c9.8-7.7 21.7-12.3 34.1-14.2l7.8-79.4c1.3-13.2 13-22.9 26.2-21.6 13.2 1.3 22.9 13 21.6 26.2l-6.2 63 51.5-36.8c10.8-7.7 25.7-5.2 33.5 5.5 7.7 10.8 5.2 25.8-5.6 33.5l-66.5 47c6.1 11.2 8.1 23.8 6.4 36.2z"/></svg>

<svg xmlns="http://www.w3.org/2000/svg" viewBox="0 0 576 512" height="1em" width="1em">
<!--! Font Awesome Free 6.1.2 by @fontawesome - https://fontawesome.com License - https://fontawesome.com/license/free (Icons: CC BY 4.0, Fonts: SIL OFL 1.1, Code: MIT License) Copyright 2022 Fonticons, Inc.-->
  <path d="M187.3 135.1H204.3L208.5 115.3C211.1 102.3 223.7 93.86 236.7 96.46C249.7 99.06 258.1 111.7 255.5 124.7L247.5 164.7C245.3 175.9 235.4 183.1 223.1 183.1H191.1V207.3L229.8 216.7C239.3 219.1 246.4 226.9 247.8 236.6L255.8 292.6C257.6 305.7 248.5 317.9 235.4 319.8C222.3 321.6 210.1 312.5 208.2 299.4L202.5 259.4L184.1 254.8C173.2 274.6 152.2 287.1 127.1 287.1C103.8 287.1 82.75 274.6 71.87 254.8L53.48 259.4L47.76 299.4C45.88 312.5 33.73 321.6 20.61 319.8C7.484 317.9-1.633 305.7 .2413 292.6L8.241 236.6C9.621 226.9 16.71 219.1 26.18 216.7L63.1 207.3V183.1H31.1C20.56 183.1 10.71 175.9 8.463 164.7L.4627 124.7C-2.137 111.7 6.292 99.06 19.29 96.46C32.29 93.86 44.93 102.3 47.53 115.3L51.67 135.1H68.65C73.35 124.4 81.36 114.5 91.51 107.4L58.15 33.92C52.67 21.85 58.01 7.625 70.08 2.145C82.15-3.335 96.37 2.007 101.9 14.08L128 71.66L154.1 14.08C159.6 2.007 173.9-3.335 185.9 2.145C197.1 7.625 203.3 21.85 197.9 33.92L164.5 107.4C174.6 114.5 182.6 124.4 187.3 135.1L187.3 135.1zM501.5 322.7L516.2 331.2L530.1 315.3C538.9 305.3 554 304.4 563.1 313.1C573.9 321.9 574.9 337 566.2 346.1L539.2 377.6C531.7 386.2 519.1 388.3 509.2 382.6L481.5 366.6L469.9 386.7L497.9 413.8C504.9 420.6 507.1 430.9 503.5 440L482.4 492.5C477.5 504.8 463.5 510.8 451.2 505.8C438.9 500.9 432.9 486.9 437.9 474.6L452.9 437.1L439.3 423.9C419.1 435.6 395 436.7 374.1 424.6C353.1 412.5 341.6 390.4 342.1 367.8L323.8 362.6L298.9 394.4C290.7 404.8 275.6 406.6 265.2 398.4C254.8 390.3 252.9 375.2 261.1 364.7L296 320.2C302.1 312.6 312.1 309.3 321.5 311.1L359 322.7L370.6 302.6L342.9 286.6C333 280.8 328.5 268.9 332.2 258.1L345.3 219.4C349.5 206.9 363.1 200.2 375.7 204.4C388.2 208.7 394.1 222.3 390.7 234.8L383.1 254.8L398.7 263.3C408.5 255.6 420.4 251 432.8 249.1L440.6 169.7C441.9 156.5 453.6 146.8 466.8 148.1C480 149.4 489.7 161.1 488.4 174.3L482.2 237.3L533.7 200.5C544.5 192.8 559.4 195.3 567.2 206C574.9 216.8 572.4 231.8 561.6 239.5L495.1 286.5C501.2 297.7 503.2 310.3 501.5 322.7V322.7z"/>
</svg>
